web/src/assets/images/facebook.svg

<svg xmlns="http://www.w3.org/2000/svg" width="48" height="48" viewBox="0 0 48 48">
  <path fill="#FFF" d="M41.1513668,3 L6.84863325,3 C4.75,3 3,4.75 3,6.84863325 L3,41.1513668 C3,43.25 4.75,45 6.84863325,45 L24,45 L24,27.5 L18.75,27.5 L18.75,22.25 L24,22.25 L24,17 C24,12.625 25.75,10 31,10 L36.25,10 L36.25,15.25 L33.9736332,15.25 C32.4013668,15.25 31,16.6513668 31,18.2236332 L31,22.25 L38,22.25 L37.125,27.5 L31,27.5 L31,45 L41.1513668,45 C43.25,45 45,43.25 45,41.1513668 L45,6.84863325 C45,4.75 43.25,3 41.1513668,3 Z"/>
</svg>

<svg xmlns="http://www.w3.org/2000/svg" viewBox="0 0 48 48"><path fill="#FFF" d="M41.151 3H6.85C4.75 3 3 4.75 3 6.849V41.15C3 43.25 4.75 45 6.849 45H24V27.5h-5.25v-5.25H24V17c0-4.375 1.75-7 7-7h5.25v5.25h-2.276C32.4 15.25 31 16.651 31 18.224v4.026h7l-.875 5.25H31V45h10.151C43.25 45 45 43.25 45 41.151V6.85C45 4.75 43.25 3 41.151 3z"/></svg>
